packages/kaspersky-hexa-ui-icons/src/iconsSVGs/16x12/FlagAi.svg

<svg width="16" height="12" viewBox="0 0 16 12" fill="none" xmlns="http://www.w3.org/2000/svg">
<g clip-path="url(#clip0_41807_2571)">
<mask id="mask0_41807_2571" style="mask-type:luminance" maskUnits="userSpaceOnUse" x="0" y="0" width="16" height="12">
<rect width="16" height="12" rx="2" fill="white"/>
</mask>
<g mask="url(#mask0_41807_2571)">
<rect width="16" height="12" fill="#0A17A7"/>
<mask id="mask1_41807_2571" style="mask-type:alpha" maskUnits="userSpaceOnUse" x="0" y="0" width="7" height="6">
<rect width="6.85714" height="5.6" fill="#042C90"/>
</mask>
<g mask="url(#mask1_41807_2571)">
<mask id="path-4-outside-1_41807_2571" maskUnits="userSpaceOnUse" x="-2.14685" y="-1.08124" width="10" height="8" fill="black">
<rect fill="white" x="-2.14685" y="-1.08124" width="10" height="8"/>
<path fill-rule="evenodd" clip-rule="evenodd" d="M2.64218 2.42889L-0.146851 -0.0812378H0.251583L3.04062 2.01054H3.83748L7.02495 -0.0812378V0.170451C7.02495 0.27537 6.97555 0.374166 6.89162 0.437117L4.23592 2.42889V3.2656L6.76238 5.53942C6.85472 5.62253 6.79593 5.77573 6.6717 5.77573C6.64237 5.77573 6.61383 5.76622 6.59037 5.74862L3.83748 3.68396H3.04062L-0.146851 5.77573V5.35738L2.64218 3.2656V2.42889Z"/>
</mask>
<path fill-rule="evenodd" clip-rule="evenodd" d="M2.64218 2.42889L-0.146851 -0.0812378H0.251583L3.04062 2.01054H3.83748L7.02495 -0.0812378V0.170451C7.02495 0.27537 6.97555 0.374166 6.89162 0.437117L4.23592 2.42889V3.2656L6.76238 5.53942C6.85472 5.62253 6.79593 5.77573 6.6717 5.77573C6.64237 5.77573 6.61383 5.76622 6.59037 5.74862L3.83748 3.68396H3.04062L-0.146851 5.77573V5.35738L2.64218 3.2656V2.42889Z" fill="#FF2E3B"/>
<path fill-rule="evenodd" clip-rule="evenodd" d="M2.64218 2.42889L-0.146851 -0.0812378H0.251583L3.04062 2.01054H3.83748L7.02495 -0.0812378V0.170451C7.02495 0.27537 6.97555 0.374166 6.89162 0.437117L4.23592 2.42889V3.2656L6.76238 5.53942C6.85472 5.62253 6.79593 5.77573 6.6717 5.77573C6.64237 5.77573 6.61383 5.76622 6.59037 5.74862L3.83748 3.68396H3.04062L-0.146851 5.77573V5.35738L2.64218 3.2656V2.42889Z" stroke="white" stroke-width="0.8" mask="url(#path-4-outside-1_41807_2571)"/>
<path fill-rule="evenodd" clip-rule="evenodd" d="M-1.04602 2.04549V3.65064H2.67512V5.80002C2.67512 5.9657 2.80943 6.10002 2.97512 6.10002H3.90384C4.06952 6.10002 4.20384 5.9657 4.20384 5.80002V3.65064H7.05761C7.22329 3.65064 7.3576 3.51633 7.3576 3.35064V2.34549C7.3576 2.17981 7.22329 2.04549 7.05761 2.04549H4.20384V-1.00684H2.67512V2.04549H-1.04602Z" fill="white"/>
<path fill-rule="evenodd" clip-rule="evenodd" d="M-0.146851 2.42889H3.04062V2.01054V-0.0812378H3.83748V2.01054V2.42889H7.02495V3.2656H3.83748V3.68396V5.77573H3.04062V3.68396V3.2656H-0.146851V2.42889Z" fill="url(#paint0_linear_41807_2571)"/>
</g>
<path fill-rule="evenodd" clip-rule="evenodd" d="M9.90479 6C9.90479 4.8 9.90479 4 9.90479 4L10.6667 4.4L11.4286 4L12.1905 4.4L12.9524 4C12.9524 4 12.9524 4.8 12.9524 6C12.9524 7.2 11.4286 8 11.4286 8C11.4286 8 9.90479 7.2 9.90479 6Z" fill="white"/>
</g>
<mask id="mask2_41807_2571" style="mask-type:luminance" maskUnits="userSpaceOnUse" x="9" y="4" width="4" height="4">
<path fill-rule="evenodd" clip-rule="evenodd" d="M9.90479 6C9.90479 4.8 9.90479 4 9.90479 4L10.6667 4.4L11.4286 4L12.1905 4.4L12.9524 4C12.9524 4 12.9524 4.8 12.9524 6C12.9524 7.2 11.4286 8 11.4286 8C11.4286 8 9.90479 7.2 9.90479 6Z" fill="white"/>
</mask>
<g mask="url(#mask2_41807_2571)">
<rect x="9.90479" y="7.20001" width="3.04762" height="0.8" fill="#9ACCFF"/>
<path d="M10.6671 5.59991C10.8773 5.60018 11.048 5.77955 11.048 6.00031C11.0478 6.22091 10.8772 6.39946 10.6671 6.39972C10.4568 6.39972 10.2854 6.22107 10.2853 6.00031C10.2853 5.77939 10.4567 5.59991 10.6671 5.59991ZM12.1906 5.59991C12.4009 5.59997 12.5714 5.77942 12.5714 6.00031C12.5712 6.22104 12.4008 6.39967 12.1906 6.39972C11.9803 6.39972 11.8099 6.22107 11.8097 6.00031C11.8097 5.77939 11.9802 5.59991 12.1906 5.59991ZM11.4288 4.80011C11.639 4.80027 11.8095 4.97892 11.8097 5.19952C11.8097 5.42034 11.6391 5.59976 11.4288 5.59991C11.2184 5.59991 11.048 5.42044 11.048 5.19952C11.0482 4.97882 11.2186 4.80011 11.4288 4.80011Z" fill="url(#paint1_linear_41807_2571)"/>
</g>
</g>
<defs>
<linearGradient id="paint0_linear_41807_2571" x1="-0.146851" y1="-0.0812378" x2="-0.146851" y2="5.77573" gradientUnits="userSpaceOnUse">
<stop stop-color="#FF2E3B"/>
<stop offset="1" stop-color="#FC0D1B"/>
</linearGradient>
<linearGradient id="paint1_linear_41807_2571" x1="10.2853" y1="4.80011" x2="10.2853" y2="6.39972" gradientUnits="userSpaceOnUse">
<stop stop-color="#FFA51B"/>
<stop offset="1" stop-color="#FF9A00"/>
</linearGradient>
<clipPath id="clip0_41807_2571">
<rect width="16" height="12" fill="white"/>
</clipPath>
</defs>
</svg>

<svg xmlns="http://www.w3.org/2000/svg" width="16" height="12" fill="none" viewBox="0 0 16 12"><g clip-path="url(#a)"><mask id="b" width="16" height="12" x="0" y="0" maskUnits="userSpaceOnUse" style="mask-type:luminance"><rect width="16" height="12" fill="#fff" rx="2"/></mask><g mask="url(#b)"><path fill="#0a17a7" d="M0 0h16v12H0z"/><mask id="c" width="7" height="6" x="0" y="0" maskUnits="userSpaceOnUse" style="mask-type:alpha"><path fill="#042c90" d="M0 0h6.8571v5.6H0z"/></mask><g mask="url(#c)"><mask id="d" width="10" height="8" x="-2" y="-1" fill="#000" maskUnits="userSpaceOnUse"><path fill="#fff" d="M-2.1469-1.0812h10v8h-10z"/><path fill-rule="evenodd" d="M2.6422 2.4289-.1468-.0812h.3984l2.789 2.0917h.7969L7.0249-.0812v.2517a.333.333 0 0 1-.1333.2666L4.236 2.429v.8367l2.5265 2.2738c.0923.0831.0335.2363-.0907.2363a.136.136 0 0 1-.0813-.027L3.8374 3.684h-.7968L-.1469 5.7757v-.4183l2.789-2.0918z" clip-rule="evenodd"/></mask><path fill="#ff2e3b" fill-rule="evenodd" d="M2.6422 2.4289-.1468-.0812h.3984l2.789 2.0917h.7969L7.0249-.0812v.2517a.333.333 0 0 1-.1333.2666L4.236 2.429v.8367l2.5265 2.2738c.0923.0831.0335.2363-.0907.2363a.136.136 0 0 1-.0813-.027L3.8374 3.684h-.7968L-.1469 5.7757v-.4183l2.789-2.0918z" clip-rule="evenodd"/><path stroke="#fff" d="M2.6422 2.4289-.1468-.0812h.3984l2.789 2.0917h.7969L7.0249-.0812v.2517a.333.333 0 0 1-.1333.2666L4.236 2.429v.8367l2.5265 2.2738c.0923.0831.0335.2363-.0907.2363a.136.136 0 0 1-.0813-.027L3.8374 3.684h-.7968L-.1469 5.7757v-.4183l2.789-2.0918z" clip-rule="evenodd" mask="url(#d)"/><path fill="#fff" fill-rule="evenodd" d="M-1.046 2.0455v1.6051h3.721V5.8a.3.3 0 0 0 .3.3h.9287a.3.3 0 0 0 .3-.3V3.6506h2.8538a.3.3 0 0 0 .3-.3V2.3455a.3.3 0 0 0-.3-.3H4.2038v-3.0523H2.6751v3.0523z" clip-rule="evenodd"/><path fill="url(#e)" fill-rule="evenodd" d="M-.1469 2.4289h3.1875V-.0812h.7969v2.5101h3.1874v.8367H3.8376v2.5101h-.7969V3.2656H-.1469z" clip-rule="evenodd"/></g><path fill="#fff" fill-rule="evenodd" d="M9.9048 6V4l.7619.4.7619-.4.7619.4.7619-.4v2c0 1.2-1.5238 2-1.5238 2s-1.5238-.8-1.5238-2" clip-rule="evenodd"/></g><mask id="f" width="4" height="4" x="9" y="4" maskUnits="userSpaceOnUse" style="mask-type:luminance"><path fill="#fff" fill-rule="evenodd" d="M9.9048 6V4l.7619.4.7619-.4.7619.4.7619-.4v2c0 1.2-1.5238 2-1.5238 2s-1.5238-.8-1.5238-2" clip-rule="evenodd"/></mask><g mask="url(#f)"><path fill="#9accff" d="M9.9048 7.2h3.0476V8H9.9048z"/><path fill="url(#g)" d="M10.6671 5.6c.2102.0002.3809.1796.3809.4003-.0002.2206-.1708.3992-.3809.3994-.2103 0-.3817-.1786-.3818-.3994 0-.221.1714-.4004.3818-.4004m1.5235 0c.2103 0 .3808.1794.3808.4003-.0002.2207-.1706.3994-.3808.3994s-.3807-.1786-.3809-.3994c0-.221.1705-.4004.3809-.4004M11.4288 4.8c.2102.0002.3807.1788.3809.3994 0 .2208-.1706.4003-.3809.4004s-.3808-.1795-.3808-.4004c.0002-.2207.1706-.3994.3808-.3994"/></g></g><defs><linearGradient id="e" x1="0" x2="0" y1="0" y2="6" gradientUnits="userSpaceOnUse"><stop stop-color="#ff2e3b"/><stop offset="1" stop-color="#fc0d1b"/></linearGradient><linearGradient id="g" x1="10" x2="10" y1="5" y2="6" gradientUnits="userSpaceOnUse"><stop stop-color="#ffa51b"/><stop offset="1" stop-color="#ff9a00"/></linearGradient><clipPath id="a"><path fill="#fff" d="M0 0h16v12H0z"/></clipPath></defs></svg>
